symbolic/48x48/apps/schism-icon-128.svg

<svg xmlns="http://www.w3.org/2000/svg" width="48" height="48"><rect style="opacity:.2;stroke:#4285f4;stroke-width:0;stroke-linecap:round;stroke-linejoin:round" width="40" height="36" x="4" y="7" rx="2.435" ry="2.378"/><rect style="fill:#b49478;stroke:#4285f4;stroke-width:0;stroke-linecap:round;stroke-linejoin:round" width="40" height="36" x="4" y="6" rx="2.435" ry="2.378"/><path style="opacity:.2;fill:#f4f4f7;stroke:#4285f4;stroke-width:0;stroke-linecap:round;stroke-linejoin:round" d="M6.436 6C5.086 6 4 7.061 4 8.379v1C4 8.06 5.087 7 6.436 7h35.128C42.914 7 44 8.061 44 9.379v-1C44 7.06 42.913 6 41.564 6z"/><path style="fill:#3f3f3f" d="M9 14h30v24H9z"/><path style="fill:#2e7034" d="M9 14v24h4V14H9zm10 0v24h4V14h-4zm10 0v24h4V14h-4z"/><path style="opacity:.2" d="M13 18v4h6v-4h-6zm10 0v4h6v-4h-6zm10 0v4h6v-4h-6zm-20 8v4h6v-4h-6zm10 0v4h6v-4h-6zm10 0v4h6v-4h-6zm-20 8v4h6v-4h-6zm10 0v4h6v-4h-6zm10 0v4h6v-4h-6zM9 14h30v1H9z"/><path style="fill:#574c45" d="M9 8h13v2H9zM9 10h7v2H9zM29 8h10v2H29z"/></svg>

<svg xmlns="http://www.w3.org/2000/svg" width="48" height="48" version="1.1">
 <rect style="opacity:0.2;stroke:#4285f4;stroke-width:0;stroke-linecap:round;stroke-linejoin:round" width="40" height="36" x="4" y="7" rx="2.435" ry="2.378"/>
 <rect style="fill:#b49478;stroke:#4285f4;stroke-width:0;stroke-linecap:round;stroke-linejoin:round" width="40" height="36" x="4" y="6" rx="2.435" ry="2.378"/>
 <path style="opacity:0.2;fill:#f4f4f7;stroke:#4285f4;stroke-width:0;stroke-linecap:round;stroke-linejoin:round" d="M 6.4355469,6 C 5.0865569,6 4,7.0614942 4,8.3789062 v 1 C 4,8.0614942 5.0865569,7 6.4355469,7 H 41.564453 C 42.913443,7 44,8.0614942 44,9.3789062 v -1 C 44,7.0614942 42.913443,6 41.564453,6 Z"/>
 <rect style="fill:#3f3f3f" width="30" height="24" x="9" y="14"/>
 <path style="fill:#2e7034" d="M 9 14 L 9 38 L 13 38 L 13 14 L 9 14 z M 19 14 L 19 38 L 23 38 L 23 14 L 19 14 z M 29 14 L 29 38 L 33 38 L 33 14 L 29 14 z"/>
 <path style="opacity:0.2" d="M 13 18 L 13 22 L 19 22 L 19 18 L 13 18 z M 23 18 L 23 22 L 29 22 L 29 18 L 23 18 z M 33 18 L 33 22 L 39 22 L 39 18 L 33 18 z M 13 26 L 13 30 L 19 30 L 19 26 L 13 26 z M 23 26 L 23 30 L 29 30 L 29 26 L 23 26 z M 33 26 L 33 30 L 39 30 L 39 26 L 33 26 z M 13 34 L 13 38 L 19 38 L 19 34 L 13 34 z M 23 34 L 23 38 L 29 38 L 29 34 L 23 34 z M 33 34 L 33 38 L 39 38 L 39 34 L 33 34 z"/>
 <rect style="opacity:0.2" width="30" height="1" x="9" y="14"/>
 <rect style="fill:#574c45" width="13" height="2" x="9" y="8"/>
 <rect style="fill:#574c45" width="7" height="2" x="9" y="10"/>
 <rect style="fill:#574c45" width="10" height="2" x="29" y="8"/>
</svg>
